X: 9152
T: Dalaigh
R: jig
M: 6/8
K: Dmajor
d2D DFA|Bcd DFA|BEE BEE|BcB AFE|
DDD DFA|Bcd DFA|BAB e2c|1 d3 d2A:|2 d3 d2e|:
fdd ddc|BAF A2d|fdd fdd|efe d2e|
fdd ddc|BAF F2A|BAB e2c|1 d3 d2e:|2 d3 d2A||

